X: 1
T: Wallop The Spot
R: jig
M: 6/8
L: 1/8
K: Dmaj
|:FEF DFA|BAF dBA|FEF DFA|BAF AFE|
FEF DFA|BAF d2e|fdf edB|BAF AFE:|
|:cdc eAA|fAA eAA|cdc eAA|BAF AFE|
cdc eAA|fAA e2f|gfe dfe|dcB AFE:|


Tune 818	Setting 13968

